svg/u1f464.svg

<svg viewBox="0 0 128 128" xmlns="http://www.w3.org/2000/svg">
  <path d="M115.1,120v4H12.9v-4c0-15.7,19.9-23.3,42-24.9V94c-9.3-2.8-17.6-9.8-21.7-21.3 c-4.2-1.5-6.6-15.3-5.5-17.1C26.9,49.8,21.4,4.3,64,4l0,0l0,0c42.5,0.2,37.1,45.6,36.2,51.5c1.1,1.8-1.3,15.6-5.5,17.1 c-4,11.5-12.3,18.6-21.6,21.4v1C95.3,96.8,115.1,105.2,115.1,120z" fill="#1976D2"/>
</svg>

<svg viewBox="0 0 128 128" xmlns="http://www.w3.org/2000/svg">
  <defs/>
  <path d="M115.1,120 L115.1,124 L12.9,124 L12.9,120 C12.9,104.3 32.8,96.7 54.9,95.1 L54.9,94 C45.6,91.2 37.3,84.2 33.2,72.7 C29,71.2 26.6,57.4 27.7,55.6 C26.9,49.8 21.4,4.3 64,4 L64,4 L64,4 C106.5,4.2 101.1,49.6 100.2,55.5 C101.3,57.3 98.9,71.1 94.7,72.6 C90.7,84.1 82.4,91.2 73.1,94 L73.1,95 C95.3,96.8 115.1,105.2 115.1,120 Z" fill="#1976D2"/>
</svg>
